Newaita-dark/apps/64/gnome-pomodoro.svg

<svg height="64pt" viewBox="0 0 64 64" width="64pt" xmlns="http://www.w3.org/2000/svg" xmlns:xlink="http://www.w3.org/1999/xlink"><linearGradient id="a"><stop offset="0" stop-opacity=".313726"/><stop offset=".222222" stop-opacity=".27451"/><stop offset="1" stop-opacity="0"/></linearGradient><radialGradient id="b" cx="450.908936" cy="189.579361" gradientTransform="matrix(.00000035 -.156265 -.281277 -.0000002 89.046304 127.190659)" gradientUnits="userSpaceOnUse" r="21.166656" xlink:href="#a"/><radialGradient id="c" cx="450.908936" cy="189.579361" gradientTransform="matrix(-.00000035 .156265 .281277 .0000002 -25.540237 -15.054964)" gradientUnits="userSpaceOnUse" r="21.166656" xlink:href="#a"/><radialGradient id="d" cx="450.908936" cy="189.579361" gradientTransform="matrix(-.00000035 -.156265 .281277 -.0000002 -25.540237 127.190659)" gradientUnits="userSpaceOnUse" r="21.166656" xlink:href="#a"/><radialGradient id="e" cx="450.908936" cy="189.579361" gradientTransform="matrix(.00000035 .156265 -.281277 .0000002 89.0463 -15.054965)" gradientUnits="userSpaceOnUse" r="21.166656" xlink:href="#a"/><linearGradient id="f" gradientTransform="matrix(.0267201 0 0 .125012 24.930772 26.877567)" gradientUnits="userSpaceOnUse" x1="255.323059" x2="255.323044" y1="233.5" y2="254.666656"><stop offset="0" stop-opacity=".27451"/><stop offset="1" stop-opacity="0"/></linearGradient><linearGradient id="g" gradientUnits="userSpaceOnUse" x1="31.753056" x2="31.753056" y1="56.06789790428" y2="5.79222438278"><stop offset="0" stop-color="#e0e0e0"/><stop offset="1" stop-color="#eee"/></linearGradient><path d="m36.382812 56.066406h5.292969v-2.644531h-5.292969zm0 0" fill="url(#b)"/><path d="m27.121094 56.066406h-5.289063v2.648438h5.289063zm0 0" fill="url(#c)"/><path d="m27.121094 56.066406h-5.289063v-2.644531h5.289063zm0 0" fill="url(#d)"/><path d="m36.382812 56.066406h5.292969v2.648438h-5.292969zm0 0" fill="url(#e)"/><path d="m27.121094 55.40625h9.261718v3.308594h-9.261718zm0 0" fill="url(#f)"/><path d="m10.585938 33.574219v1.324219c0 11.726562 9.441406 21.167968 21.167968 21.167968 11.726563 0 21.167969-9.441406 21.167969-21.167968v-1.324219c0-13.890625-10.585937-27.851563-21.167969-27.851563-10.585937 0-21.167968 13.960938-21.167968 27.851563zm0 0" fill="url(#g)"/><path d="m31.753906 5.722656c-10.585937 0-21.167968 13.960938-21.167968 27.851563v.707031c0-13.890625 10.582031-27.855469 21.167968-27.855469 10.582032 0 21.167969 13.964844 21.167969 27.855469v-.707031c0-13.890625-10.585937-27.851563-21.167969-27.851563zm0 0" fill="#fff" fill-opacity=".784314"/><path d="m10.585938 33.914062v.984376c0 11.726562 9.441406 21.167968 21.167968 21.167968 11.726563 0 21.167969-9.441406 21.167969-21.167968v-.984376c0 11.726563-9.441406 21.167969-21.167969 21.167969-11.726562 0-21.167968-9.441406-21.167968-21.167969zm0 0" fill-opacity=".235294"/><path d="m21.960938 16.050781c1.121093.648438 1.039062 2.890625-.183594 5.007813-1.222656 2.117187-3.121094 3.308594-4.242188 2.664062-1.121094-.648437-1.039062-2.890625.183594-5.007812 1.222656-2.117188 3.121094-3.3125 4.242188-2.664063zm0 0" fill="#fff" fill-opacity=".588235"/><path d="m10.585938 34.296875v.390625c5.625 1.667969 13.03125 2.675781 21.167968 2.675781 8.136719 0 15.539063-1.007812 21.167969-2.675781v-.390625c-5.59375 1.671875-13.011719 2.691406-21.167969 2.691406-8.160156 0-15.578125-1.019531-21.167968-2.691406zm0 0" fill-opacity=".235294"/><path d="m10.585938 35.035156c0 .132813 0 .265625.003906.394532 5.628906 1.667968 13.03125 2.671874 21.164062 2.671874 8.132813 0 15.535156-1.003906 21.160156-2.671874.003907-.128907.007813-.261719.007813-.394532-5.59375 1.671875-13.011719 2.691406-21.167969 2.691406-8.160156 0-15.578125-1.019531-21.167968-2.691406zm0 0" fill="#fff" fill-opacity=".588235"/><path d="m320.048194 1015.0606v40.035549c0 354.533092 285.445197 639.978289 639.978289 639.978289 354.533091 0 639.978289-285.445197 639.978289-639.978289v-40.035549c0-419.959918-320.048194-842.045617-639.978289-842.045617-320.048194 0-639.978289 422.085699-639.978289 842.045617zm0 0" fill="none" stroke="#212121" stroke-linecap="round" stroke-linejoin="round" stroke-width="11.338583" transform="scale(.0330761)"/><path d="m10.585938 34.667969v.230469.160156c5.625 1.667968 13.03125 2.675781 21.167968 2.675781 8.136719 0 15.539063-1.007813 21.167969-2.675781 0-.054688 0-.105469 0-.160156v-.230469c-5.59375 1.671875-13.011719 2.691406-21.167969 2.691406-8.160156 0-15.578125-1.019531-21.167968-2.691406zm0 0" fill-opacity=".588235"/><g fill="#424242"><path d="m31.773438 38.867188c-.242188-.003907-.472657.105468-.621094.300781l-1.984375 2.644531c-.222657.300781-.195313.71875.070312.980469.34375.34375.738281.472656 1.164063.574219.425781.097656.886718.144531 1.351562.144531.460938 0 .925782-.046875 1.347656-.144531.425782-.101563.824219-.230469 1.167969-.574219.261719-.261719.292969-.679688.066407-.980469l-1.984376-2.644531c-.136718-.183594-.347656-.292969-.578124-.300781zm0 0"/><path d="m31.421875 32.253906h.660156c.183594 0 .332031.148438.332031.328125v3.972657c0 .179687-.148437.328124-.332031.328124h-.660156c-.183594 0-.332031-.148437-.332031-.328124v-3.972657c0-.179687.148437-.328125.332031-.328125zm0 0"/><path d="m28.777344 34.203125h.660156c.183594 0 .332031.148437.332031.332031v1.984375c0 .183594-.148437.332031-.332031.332031h-.660156c-.183594 0-.332032-.148437-.332032-.332031v-1.984375c0-.183594.148438-.332031.332032-.332031zm0 0"/><path d="m26.128906 34.070312h.664063c.179687 0 .328125.148438.328125.332032v1.984375c0 .183593-.148438.332031-.328125.332031h-.664063c-.179687 0-.328125-.148438-.328125-.332031v-1.984375c0-.183594.148438-.332032.328125-.332032zm0 0"/><path d="m23.484375 33.875h.660156c.183594 0 .332031.148438.332031.328125v1.984375c0 .183594-.148437.332031-.332031.332031h-.660156c-.183594 0-.332031-.148437-.332031-.332031v-1.984375c0-.179687.148437-.328125.332031-.328125zm0 0"/><path d="m20.839844 31.589844h.660156c.183594 0 .332031.148437.332031.332031v3.96875c0 .183594-.148437.332031-.332031.332031h-.660156c-.183594 0-.332032-.148437-.332032-.332031v-3.96875c0-.183594.148438-.332031.332032-.332031zm0 0"/><path d="m18.191406 33.210938h.660156c.183594 0 .332032.148437.332032.332031v1.984375c0 .183594-.148438.332031-.332032.332031h-.660156c-.183594 0-.332031-.148437-.332031-.332031v-1.984375c0-.183594.148437-.332031.332031-.332031zm0 0"/><path d="m15.546875 32.75h.660156c.183594 0 .332031.148438.332031.328125v1.988281c0 .179688-.148437.328125-.332031.328125h-.660156c-.183594 0-.332031-.148437-.332031-.328125v-1.988281c0-.179687.148437-.328125.332031-.328125zm0 0"/><path d="m12.898438 32.152344h.664062c.179688 0 .328125.148437.328125.332031v1.984375c0 .183594-.148437.332031-.328125.332031h-.664062c-.179688 0-.328126-.148437-.328126-.332031v-1.984375c0-.183594.148438-.332031.328126-.332031zm0 0"/></g></svg>

<?xml version="1.0" encoding="UTF-8"?>
<svg xmlns="http://www.w3.org/2000/svg" xmlns:xlink="http://www.w3.org/1999/xlink" width="64pt" height="64pt" viewBox="0 0 64 64" version="1.1">
<defs>
<radialGradient id="radial0" gradientUnits="userSpaceOnUse" cx="450.908936" cy="189.579361" fx="450.908936" fy="189.579361" r="21.166656" gradientTransform="matrix(0.000000348341,-0.156265,-0.281277,-0.000000203077,89.046304,127.190659)">
<stop offset="0" style="stop-color:rgb(0%,0%,0%);stop-opacity:0.313726;"/>
<stop offset="0.222222" style="stop-color:rgb(0%,0%,0%);stop-opacity:0.27451;"/>
<stop offset="1" style="stop-color:rgb(0%,0%,0%);stop-opacity:0;"/>
</radialGradient>
<radialGradient id="radial1" gradientUnits="userSpaceOnUse" cx="450.908936" cy="189.579361" fx="450.908936" fy="189.579361" r="21.166656" gradientTransform="matrix(-0.000000348341,0.156265,0.281277,0.000000203077,-25.540237,-15.054964)">
<stop offset="0" style="stop-color:rgb(0%,0%,0%);stop-opacity:0.313726;"/>
<stop offset="0.222222" style="stop-color:rgb(0%,0%,0%);stop-opacity:0.27451;"/>
<stop offset="1" style="stop-color:rgb(0%,0%,0%);stop-opacity:0;"/>
</radialGradient>
<radialGradient id="radial2" gradientUnits="userSpaceOnUse" cx="450.908936" cy="189.579361" fx="450.908936" fy="189.579361" r="21.166656" gradientTransform="matrix(-0.000000348341,-0.156265,0.281277,-0.000000203077,-25.540237,127.190659)">
<stop offset="0" style="stop-color:rgb(0%,0%,0%);stop-opacity:0.313726;"/>
<stop offset="0.222222" style="stop-color:rgb(0%,0%,0%);stop-opacity:0.27451;"/>
<stop offset="1" style="stop-color:rgb(0%,0%,0%);stop-opacity:0;"/>
</radialGradient>
<radialGradient id="radial3" gradientUnits="userSpaceOnUse" cx="450.908936" cy="189.579361" fx="450.908936" fy="189.579361" r="21.166656" gradientTransform="matrix(0.000000348341,0.156265,-0.281277,0.000000203077,89.0463,-15.054965)">
<stop offset="0" style="stop-color:rgb(0%,0%,0%);stop-opacity:0.313726;"/>
<stop offset="0.222222" style="stop-color:rgb(0%,0%,0%);stop-opacity:0.27451;"/>
<stop offset="1" style="stop-color:rgb(0%,0%,0%);stop-opacity:0;"/>
</radialGradient>
<linearGradient id="linear0" gradientUnits="userSpaceOnUse" x1="255.323059" y1="233.5" x2="255.323044" y2="254.666656" gradientTransform="matrix(0.0267201,0,0,0.125012,24.930772,26.877567)">
<stop offset="0" style="stop-color:rgb(0%,0%,0%);stop-opacity:0.27451;"/>
<stop offset="1" style="stop-color:rgb(0%,0%,0%);stop-opacity:0;"/>
</linearGradient>
<linearGradient id="linear1" gradientUnits="userSpaceOnUse" x1="960" y1="1695.118164" x2="960" y2="175.118118" gradientTransform="matrix(0.0330761,0,0,0.0330761,0,0)">
<stop offset="0" style="stop-color:rgb(87.843138%,87.843138%,87.843138%);stop-opacity:1;"/>
<stop offset="1" style="stop-color:rgb(93.333334%,93.333334%,93.333334%);stop-opacity:1;"/>
</linearGradient>
</defs>
<g id="surface1">
<path style=" stroke:none;fill-rule:nonzero;fill:url(#radial0);" d="M 36.382812 56.066406 L 41.675781 56.066406 L 41.675781 53.421875 L 36.382812 53.421875 Z M 36.382812 56.066406 "/>
<path style=" stroke:none;fill-rule:nonzero;fill:url(#radial1);" d="M 27.121094 56.066406 L 21.832031 56.066406 L 21.832031 58.714844 L 27.121094 58.714844 Z M 27.121094 56.066406 "/>
<path style=" stroke:none;fill-rule:nonzero;fill:url(#radial2);" d="M 27.121094 56.066406 L 21.832031 56.066406 L 21.832031 53.421875 L 27.121094 53.421875 Z M 27.121094 56.066406 "/>
<path style=" stroke:none;fill-rule:nonzero;fill:url(#radial3);" d="M 36.382812 56.066406 L 41.675781 56.066406 L 41.675781 58.714844 L 36.382812 58.714844 Z M 36.382812 56.066406 "/>
<path style=" stroke:none;fill-rule:nonzero;fill:url(#linear0);" d="M 27.121094 55.40625 L 36.382812 55.40625 L 36.382812 58.714844 L 27.121094 58.714844 Z M 27.121094 55.40625 "/>
<path style=" stroke:none;fill-rule:nonzero;fill:url(#linear1);" d="M 10.585938 33.574219 L 10.585938 34.898438 C 10.585938 46.625 20.027344 56.066406 31.753906 56.066406 C 43.480469 56.066406 52.921875 46.625 52.921875 34.898438 L 52.921875 33.574219 C 52.921875 19.683594 42.335938 5.722656 31.753906 5.722656 C 21.167969 5.722656 10.585938 19.683594 10.585938 33.574219 Z M 10.585938 33.574219 "/>
<path style=" stroke:none;fill-rule:nonzero;fill:rgb(100%,100%,100%);fill-opacity:0.784314;" d="M 31.753906 5.722656 C 21.167969 5.722656 10.585938 19.683594 10.585938 33.574219 L 10.585938 34.28125 C 10.585938 20.390625 21.167969 6.425781 31.753906 6.425781 C 42.335938 6.425781 52.921875 20.390625 52.921875 34.28125 L 52.921875 33.574219 C 52.921875 19.683594 42.335938 5.722656 31.753906 5.722656 Z M 31.753906 5.722656 "/>
<path style=" stroke:none;fill-rule:nonzero;fill:rgb(0%,0%,0%);fill-opacity:0.235294;" d="M 10.585938 33.914062 L 10.585938 34.898438 C 10.585938 46.625 20.027344 56.066406 31.753906 56.066406 C 43.480469 56.066406 52.921875 46.625 52.921875 34.898438 L 52.921875 33.914062 C 52.921875 45.640625 43.480469 55.082031 31.753906 55.082031 C 20.027344 55.082031 10.585938 45.640625 10.585938 33.914062 Z M 10.585938 33.914062 "/>
<path style=" stroke:none;fill-rule:nonzero;fill:rgb(100%,100%,100%);fill-opacity:0.588235;" d="M 21.960938 16.050781 C 23.082031 16.699219 23 18.941406 21.777344 21.058594 C 20.554688 23.175781 18.65625 24.367188 17.535156 23.722656 C 16.414062 23.074219 16.496094 20.832031 17.71875 18.714844 C 18.941406 16.597656 20.839844 15.402344 21.960938 16.050781 Z M 21.960938 16.050781 "/>
<path style=" stroke:none;fill-rule:nonzero;fill:rgb(0%,0%,0%);fill-opacity:0.235294;" d="M 10.585938 34.296875 L 10.585938 34.6875 C 16.210938 36.355469 23.617188 37.363281 31.753906 37.363281 C 39.890625 37.363281 47.292969 36.355469 52.921875 34.6875 L 52.921875 34.296875 C 47.328125 35.96875 39.910156 36.988281 31.753906 36.988281 C 23.59375 36.988281 16.175781 35.96875 10.585938 34.296875 Z M 10.585938 34.296875 "/>
<path style=" stroke:none;fill-rule:nonzero;fill:rgb(100%,100%,100%);fill-opacity:0.588235;" d="M 10.585938 35.035156 C 10.585938 35.167969 10.585938 35.300781 10.589844 35.429688 C 16.21875 37.097656 23.621094 38.101562 31.753906 38.101562 C 39.886719 38.101562 47.289062 37.097656 52.914062 35.429688 C 52.917969 35.300781 52.921875 35.167969 52.921875 35.035156 C 47.328125 36.707031 39.910156 37.726562 31.753906 37.726562 C 23.59375 37.726562 16.175781 36.707031 10.585938 35.035156 Z M 10.585938 35.035156 "/>
<path style="fill:none;stroke-width:11.338583;stroke-linecap:round;stroke-linejoin:round;stroke:rgb(12.941177%,12.941177%,12.941177%);stroke-opacity:1;stroke-miterlimit:4;" d="M 320.048194 1015.0606 L 320.048194 1055.096149 C 320.048194 1409.629241 605.493391 1695.074438 960.026483 1695.074438 C 1314.559574 1695.074438 1600.004772 1409.629241 1600.004772 1055.096149 L 1600.004772 1015.0606 C 1600.004772 595.100682 1279.956578 173.014983 960.026483 173.014983 C 639.978289 173.014983 320.048194 595.100682 320.048194 1015.0606 Z M 320.048194 1015.0606 " transform="matrix(0.0330761,0,0,0.0330761,0,0)"/>
<path style=" stroke:none;fill-rule:nonzero;fill:rgb(0%,0%,0%);fill-opacity:0.588235;" d="M 10.585938 34.667969 L 10.585938 34.898438 C 10.585938 34.953125 10.585938 35.003906 10.585938 35.058594 C 16.210938 36.726562 23.617188 37.734375 31.753906 37.734375 C 39.890625 37.734375 47.292969 36.726562 52.921875 35.058594 C 52.921875 35.003906 52.921875 34.953125 52.921875 34.898438 L 52.921875 34.667969 C 47.328125 36.339844 39.910156 37.359375 31.753906 37.359375 C 23.59375 37.359375 16.175781 36.339844 10.585938 34.667969 Z M 10.585938 34.667969 "/>
<path style=" stroke:none;fill-rule:nonzero;fill:rgb(25.882354%,25.882354%,25.882354%);fill-opacity:1;" d="M 31.773438 38.867188 C 31.53125 38.863281 31.300781 38.972656 31.152344 39.167969 L 29.167969 41.8125 C 28.945312 42.113281 28.972656 42.53125 29.238281 42.792969 C 29.582031 43.136719 29.976562 43.265625 30.402344 43.367188 C 30.828125 43.464844 31.289062 43.511719 31.753906 43.511719 C 32.214844 43.511719 32.679688 43.464844 33.101562 43.367188 C 33.527344 43.265625 33.925781 43.136719 34.269531 42.792969 C 34.53125 42.53125 34.5625 42.113281 34.335938 41.8125 L 32.351562 39.167969 C 32.214844 38.984375 32.003906 38.875 31.773438 38.867188 Z M 31.773438 38.867188 "/>
<path style=" stroke:none;fill-rule:nonzero;fill:rgb(25.882354%,25.882354%,25.882354%);fill-opacity:1;" d="M 31.421875 32.253906 L 32.082031 32.253906 C 32.265625 32.253906 32.414062 32.402344 32.414062 32.582031 L 32.414062 36.554688 C 32.414062 36.734375 32.265625 36.882812 32.082031 36.882812 L 31.421875 36.882812 C 31.238281 36.882812 31.089844 36.734375 31.089844 36.554688 L 31.089844 32.582031 C 31.089844 32.402344 31.238281 32.253906 31.421875 32.253906 Z M 31.421875 32.253906 "/>
<path style=" stroke:none;fill-rule:nonzero;fill:rgb(25.882354%,25.882354%,25.882354%);fill-opacity:1;" d="M 28.777344 34.203125 L 29.4375 34.203125 C 29.621094 34.203125 29.769531 34.351562 29.769531 34.535156 L 29.769531 36.519531 C 29.769531 36.703125 29.621094 36.851562 29.4375 36.851562 L 28.777344 36.851562 C 28.59375 36.851562 28.445312 36.703125 28.445312 36.519531 L 28.445312 34.535156 C 28.445312 34.351562 28.59375 34.203125 28.777344 34.203125 Z M 28.777344 34.203125 "/>
<path style=" stroke:none;fill-rule:nonzero;fill:rgb(25.882354%,25.882354%,25.882354%);fill-opacity:1;" d="M 26.128906 34.070312 L 26.792969 34.070312 C 26.972656 34.070312 27.121094 34.21875 27.121094 34.402344 L 27.121094 36.386719 C 27.121094 36.570312 26.972656 36.71875 26.792969 36.71875 L 26.128906 36.71875 C 25.949219 36.71875 25.800781 36.570312 25.800781 36.386719 L 25.800781 34.402344 C 25.800781 34.21875 25.949219 34.070312 26.128906 34.070312 Z M 26.128906 34.070312 "/>
<path style=" stroke:none;fill-rule:nonzero;fill:rgb(25.882354%,25.882354%,25.882354%);fill-opacity:1;" d="M 23.484375 33.875 L 24.144531 33.875 C 24.328125 33.875 24.476562 34.023438 24.476562 34.203125 L 24.476562 36.1875 C 24.476562 36.371094 24.328125 36.519531 24.144531 36.519531 L 23.484375 36.519531 C 23.300781 36.519531 23.152344 36.371094 23.152344 36.1875 L 23.152344 34.203125 C 23.152344 34.023438 23.300781 33.875 23.484375 33.875 Z M 23.484375 33.875 "/>
<path style=" stroke:none;fill-rule:nonzero;fill:rgb(25.882354%,25.882354%,25.882354%);fill-opacity:1;" d="M 20.839844 31.589844 L 21.5 31.589844 C 21.683594 31.589844 21.832031 31.738281 21.832031 31.921875 L 21.832031 35.890625 C 21.832031 36.074219 21.683594 36.222656 21.5 36.222656 L 20.839844 36.222656 C 20.65625 36.222656 20.507812 36.074219 20.507812 35.890625 L 20.507812 31.921875 C 20.507812 31.738281 20.65625 31.589844 20.839844 31.589844 Z M 20.839844 31.589844 "/>
<path style=" stroke:none;fill-rule:nonzero;fill:rgb(25.882354%,25.882354%,25.882354%);fill-opacity:1;" d="M 18.191406 33.210938 L 18.851562 33.210938 C 19.035156 33.210938 19.183594 33.359375 19.183594 33.542969 L 19.183594 35.527344 C 19.183594 35.710938 19.035156 35.859375 18.851562 35.859375 L 18.191406 35.859375 C 18.007812 35.859375 17.859375 35.710938 17.859375 35.527344 L 17.859375 33.542969 C 17.859375 33.359375 18.007812 33.210938 18.191406 33.210938 Z M 18.191406 33.210938 "/>
<path style=" stroke:none;fill-rule:nonzero;fill:rgb(25.882354%,25.882354%,25.882354%);fill-opacity:1;" d="M 15.546875 32.75 L 16.207031 32.75 C 16.390625 32.75 16.539062 32.898438 16.539062 33.078125 L 16.539062 35.066406 C 16.539062 35.246094 16.390625 35.394531 16.207031 35.394531 L 15.546875 35.394531 C 15.363281 35.394531 15.214844 35.246094 15.214844 35.066406 L 15.214844 33.078125 C 15.214844 32.898438 15.363281 32.75 15.546875 32.75 Z M 15.546875 32.75 "/>
<path style=" stroke:none;fill-rule:nonzero;fill:rgb(25.882354%,25.882354%,25.882354%);fill-opacity:1;" d="M 12.898438 32.152344 L 13.5625 32.152344 C 13.742188 32.152344 13.890625 32.300781 13.890625 32.484375 L 13.890625 34.46875 C 13.890625 34.652344 13.742188 34.800781 13.5625 34.800781 L 12.898438 34.800781 C 12.71875 34.800781 12.570312 34.652344 12.570312 34.46875 L 12.570312 32.484375 C 12.570312 32.300781 12.71875 32.152344 12.898438 32.152344 Z M 12.898438 32.152344 "/>
</g>
</svg>
